!!!!SEGMENT: pl-cz--i-57--002_mrozowski-tadeusz--rotate-ex-d-tryumfuy-niebo-a.krn
!!!cenid: 17xx:239
!!!COM: Mrozowski, Tadeusz
!!!COM-rismid: pe30020313
!!!CDT: <1790->1810
!!!CNT:
!!!OPR: Rotate ex D
!!!OTL: Tryumfuy niebo - a
!!!OMV: 002
!!!PDT:
!!!AGN: Sacred
!!!SMS-siglum: PL-CZ
!!!SMS-shelfmark: I-57
!!!SMS-shelfwork: 001-002 M
!!!NIFC-rismid:
!!!URL-scan: http://repozytorium.nifc.pl/skany/pl-cz-nut--i-57
!!!ONB-nifc: UWAGA: części Rorate: Rorate, Tryumfuy niebo
!!!key:
**kern	**kern	**kern	**kern	**kern	**kern	**kern	**kern	**kern	**kern	**kern
*part11	*part10	*part9	*part8	*part7	*part6	*part5	*part4	*part3	*part2	*part1
*	*group3	*group3	*group2	*group2	*group2	*	*group1	*group1	*group1	*group1
*staff11	*staff10	*staff9	*staff8	*staff7	*staff6	*staff5	*staff4	*staff3	*staff2	*staff1
*Iempty	*Ivioln	*Ivioln	*Ibass	*Ivox	*Ivox	*Itimpa	*Iempty	*Iempty	*Iempty	*Iempty
*I"Baſso.	*I"Violino 2do.	*I"Violino 1mo.	*I"Baſso Vocali	*I"Canto 2do.	*I"Canto Primo.	*I"Tympano in D. A.	*I"Clarino 2do ex D.	*I"Clarino 1mo	*I"Cornu 2do ex F.	*I"Cornu 1mo ex F.
*I'b - f	*I'Vn II	*I'Vn I	*I'B.	*I'S II	*I'S I	*I'Timp	*I'Cl II	*I'Cl I	*I'Cor II	*I'Cor I
*clefF4	*clefG2	*clefG2	*clefF4	*clefG2	*clefG2	*clefF4	*clefG2	*clefG2	*clefG2	*clefG2
*	*	*	*	*	*	*	*ITrd-1c-2	*ITrd-1c-2	*ITrd4c7	*ITrd4c7
*k[b-]	*k[b-]	*k[b-]	*k[b-]	*k[b-]	*k[b-]	*k[b-]	*k[b-]	*k[b-]	*k[b-]	*k[b-]
*F:	*F:	*F:	*	*	*	*	*	*	*	*
*M3/4	*M3/4	*M3/4	*M3/4	*M3/4	*M3/4	*M3/4	*M3/4	*M3/4	*M3/4	*M3/4
=1	=1	=1	=1	=1	=1	=1	=1	=1	=1	=1
!LO:TX:a:B:t=Andan.	!LO:TX:a:B:t=Andan.	!LO:TX:a:B:t=Andan.	!	!	!	!	!	!	!	!
!LO:TX:b:t=Tryumfuy Niebo.	!LO:TX:b:t=Tryumfuy	!LO:TX:b:t=Tryumfuy Niebo.	!LO:TX:a:t=P:problem=domyślny Tacet. Głos nie śpiewa w tej części.	!LO:TX:a:t=P:problem=domyślny Tacet. Głos nie śpiewa w tej części.	!LO:TX:a:t=P:problem=domyślny Tacet. Głos nie śpiewa w tej części.	!LO:TX:a:t=P:problem=domyślny Tacet. Instrument nie gra w tej części.	!LO:TX:a:t=P:problem=domyślny Tacet. Instrument nie gra w tej części.	!LO:TX:a:t=P:problem=domyślny Tacet. Instrument nie gra w tej części.	!LO:TX:b:t=Tryumfuy	!LO:TX:b:t=Tryumfuy Niebo
4F\	4a\	4cc\	2.ryy	2.ryy	2.ryy	2.ryy	2.ryy	2.ryy	4a\	4cc\
4F\	4cc\	4ff\	.	.	.	.	.	.	4cc\	4ff\
4F\	4a\	4cc\	.	.	.	.	.	.	4a\	4cc\
=2	=2	=2	=2	=2	=2	=2	=2	=2	=2	=2
4F\	8f/L	(8a/L	2.ryy	2.ryy	2.ryy	2.ryy	2.ryy	2.ryy	8f\L	8a\L
!	!LO:TX:b:t=g	!	!	!	!	!	!	!	!	!
.	8g/	8b-/	.	.	.	.	.	.	8g\	8b-\
4r	8f/	8a/	.	.	.	.	.	.	8f\	8a\
.	8g/J	8b-/J)	.	.	.	.	.	.	8g\J	8b-\J
4r	4a/	4cc\	.	.	.	.	.	.	4a\	4cc\
=3	=3	=3	=3	=3	=3	=3	=3	=3	=3	=3
8B-\L	8b-/L	8dd\L	2.ryy	2.ryy	2.ryy	2.ryy	2.ryy	2.ryy	8b-\L	8dd\L
8A\	8a/	8cc\	.	.	.	.	.	.	8a\	8cc\
8G\	8g/	8b-\	.	.	.	.	.	.	8g\	8b-\
8F\	8f/	8a\	.	.	.	.	.	.	8f\J	8a\
8E\	8e/	8g\	.	.	.	.	.	.	8c/L	8g\
8D\J	8d/J	8f\J	.	.	.	.	.	.	8c/J	8f\J
=4	=4	=4	=4	=4	=4	=4	=4	=4	=4	=4
4C/	8c/L	8e/L	2.ryy	2.ryy	2.ryy	2.ryy	2.ryy	2.ryy	4C/	4c/
.	8d/	8f/	.	.	.	.	.	.	.	.
4C/	8e/	8g/	.	.	.	.	.	.	8C/L	8c/L
.	8c/J	8e/J	.	.	.	.	.	.	8C/J	8c/J
4C/	4c/	4c/	.	.	.	.	.	.	4C/	4c/
=5	=5	=5	=5	=5	=5	=5	=5	=5	=5	=5
4C/	4cc\	4cc\	2.ryy	2.ryy	2.ryy	2.ryy	2.ryy	2.ryy	4cc\	4cc\
4F\	4cc\	4ff\	.	.	.	.	.	.	4cc\	4ff\
4D\	4ff\	4aa\	.	.	.	.	.	.	4ff\	4aa\
=6	=6	=6	=6	=6	=6	=6	=6	=6	=6	=6
4G\	8ee\L	8gg\L	2.ryy	2.ryy	2.ryy	2.ryy	2.ryy	2.ryy	8ee\L	8gg\L
.	8dd\	8ff\	.	.	.	.	.	.	8dd\	8ff\
8A\L	8cc\	8ee\	.	.	.	.	.	.	8cc\	8ee\
!LO:SIC:s=8Bn:v	!	!	!	!	!	!	!	!	!LO:SIC:s=8b:v	!
8B-\J	8bn\J	8dd\J	.	.	.	.	.	.	8b-\J	8dd\J
!LO:LB:g=original	!	!	!	!	!	!	!	!	!	!LO:LB:g=original
4c\	4cc\	4cc\	.	.	.	.	.	.	4cc\	4cc\
=7	=7	=7	=7	=7	=7	=7	=7	=7	=7	=7
!	!LO:LB:g=original	!LO:LB:g=original	!	!	!	!	!	!	!	!
4c\	4cc\	4ee-X\	2.ryy	2.ryy	2.ryy	2.ryy	2.ryy	2.ryy	2.r;	2.r;
4c\	4cc\	4ee-\	.	.	.	.	.	.	.	.
4Bn\	4bn\	4dd\	.	.	.	.	.	.	.	.
=8	=8	=8	=8	=8	=8	=8	=8	=8	=8	=8
!	!	!LO:TUP:a:problem=klamra łukowa	!	!	!	!	!	!	!LO:LB:g=original	!
4c\	4cc\	12ee-X\L	2.ryy	2.ryy	2.ryy	2.ryy	2.ryy	2.ryy	4cc\	4cc\
.	.	12dd\	.	.	.	.	.	.	.	.
.	.	12cc\J	.	.	.	.	.	.	.	.
*	*	*2\right	*	*	*	*	*	*	*2\right	*2\right
4G\	2g/	2bn\	.	.	.	.	.	.	2g\	2bX\
4G\	.	.	.	.	.	.	.	.	.	.
=9	=9	=9	=9	=9	=9	=9	=9	=9	=9	=9
2C/	4e/	2cc\	2.ryy	2.ryy	2.ryy	2.ryy	2.ryy	2.ryy	4c/	4cc\
.	4r	.	.	.	.	.	.	.	4r	4r
4r	4r	4r	.	.	.	.	.	.	4r	4r
=10:|!|:	=10:|!|:	=10:|!|:	=10:|!|:	=10:|!|:	=10:|!|:	=10:|!|:	=10:|!|:	=10:|!|:	=10:|!|:	=10:|!|:
4C/	4e/	4g/	2.ryy	2.ryy	2.ryy	2.ryy	2.ryy	2.ryy	4C/	4c/
4C/	8e/L	8g/L	.	.	.	.	.	.	4C/	4c/
.	8f/	8a/	.	.	.	.	.	.	.	.
4C/	8e/	8g/	.	.	.	.	.	.	4C/	4c/
.	8f/J	8a/J	.	.	.	.	.	.	.	.
=11	=11	=11	=11	=11	=11	=11	=11	=11	=11	=11
4C/	8g/L	8b-X\L	2.ryy	2.ryy	2.ryy	2.ryy	2.ryy	2.ryy	4C/	4c/
.	8f/J	8a\J	.	.	.	.	.	.	.	.
4r	2g/	2b-\	.	.	.	.	.	.	4r	4r
4r	.	.	.	.	.	.	.	.	4r	4r
=12	=12	=12	=12	=12	=12	=12	=12	=12	=12	=12
4F\	8f/L	8a/L	2.ryy	2.ryy	2.ryy	2.ryy	2.ryy	2.ryy	2.r;	2.r;
.	8a/	8cc/	.	.	.	.	.	.	.	.
4r	8g/	8b-/	.	.	.	.	.	.	.	.
.	8f/	8a/	.	.	.	.	.	.	.	.
4r	8e/	8g/	.	.	.	.	.	.	.	.
.	8d/J	8f/J	.	.	.	.	.	.	.	.
=13	=13	=13	=13	=13	=13	=13	=13	=13	=13	=13
!LO:LB:g=original	!	!	!	!	!	!	!	!	!	!
4C/	8c/L	8e/L	2.ryy	2.ryy	2.ryy	2.ryy	2.ryy	2.ryy	4C/	4c/
.	8d/	8f/	.	.	.	.	.	.	.	.
4C/	8e/	8g/	.	.	.	.	.	.	8C/L	8c/L
.	8c/J	8e/J	.	.	.	.	.	.	8C/J	8c/J
4C/	4c/	4c/	.	.	.	.	.	.	4C/	4c/
=14	=14	=14	=14	=14	=14	=14	=14	=14	=14	=14
!	!LO:LB:g=original	!LO:LB:g=original	!	!	!	!	!	!	!	!
!LO:TX:a:t=P:problem=mixed beam	!	!	!	!	!	!	!	!	!	!LO:TX:a:t=P:problem=partie corni i basso nie zgadzają się harmonicznie z partiami violini
8BB-/L	4cc\	8cc\L	2.ryy	2.ryy	2.ryy	2.ryy	2.ryy	2.ryy	4b-\	4dd\
8B-\	.	8ff\J	.	.	.	.	.	.	.	.
!	!LO:TX:a:t=P:problem=mixed beam	!	!	!	!	!	!	!	!	!
8BB-/	8ff\L	8aa\L	.	.	.	.	.	.	4r	4r
8B-\	(8a/	(8cc\	.	.	.	.	.	.	.	.
8BB-/	8g/	8b-\	.	.	.	.	.	.	4r	4r
8B-\J	8f/J)	8a\J)	.	.	.	.	.	.	.	.
=15	=15	=15	=15	=15	=15	=15	=15	=15	=15	=15
!LO:TX:a:t=P:problem=mixed beam	!	!	!	!	!	!	!	!	!	!
8AA/L	4b-\	8b-\L	2.ryy	2.ryy	2.ryy	2.ryy	2.ryy	2.ryy	4a\	4cc\
8A\	.	8ee\J	.	.	.	.	.	.	.	.
!	!LO:TX:a:t=P:problem=mixed beam	!	!	!	!	!	!	!	!	!
8AA/	8ee\L	8gg\L	.	.	.	.	.	.	4r	4r
8A\	(8g/	(8b-\	.	.	.	.	.	.	.	.
8AA/	8f/	8a\	.	.	.	.	.	.	4r	4r
8A\J	8e/J)	8g\J)	.	.	.	.	.	.	.	.
=16	=16	=16	=16	=16	=16	=16	=16	=16	=16	=16
!	!	!LO:TUP:b:problem=klamra łukowa	!	!	!	!	!	!	!LO:LB:g=original	!
4F\	4f/	12a/L	2.ryy	2.ryy	2.ryy	2.ryy	2.ryy	2.ryy	4g\	4b-\
.	.	12g/	.	.	.	.	.	.	.	.
.	.	12f/J	.	.	.	.	.	.	.	.
4C/	2e/	2g/	.	.	.	.	.	.	4f\	4a\
4C/	.	.	.	.	.	.	.	.	4c\	4g\
=17	=17	=17	=17	=17	=17	=17	=17	=17	=17	=17
4FF/	4f/	4f/	2.ryy	2.ryy	2.ryy	2.ryy	2.ryy	2.ryy	4A/	4f\
4r	4r	4r	.	.	.	.	.	.	4r	4r
4r	4r	4r	.	.	.	.	.	.	4r	4r
==18	==18	==18	==18	==18	==18	==18	==18	==18	==18	==18
!LO:LB:g=original	!LO:LB:g=original	!LO:LB:g=original	!	!	!	!	!	!	!	!
*k[f#c#g#]	*k[f#c#g#]	*k[f#c#g#]	*	*	*	*	*	*	*	*
!LO:TX:a:B:t=Lente.	!	!	!	!	!	!	!	!	!	!LO:TX:a:t=P:problem=domyślny Tacet. Instrument nie gra w tej części.
!LO:TX:b:t=Witam Cię witam	!LO:TX:b:t=Witam Cię witam.	!LO:TX:b:t=Witam Cię witam Królowa Niebieska.	!	!	!	!	!	!	!LO:TX:a:t=P:problem=domyślny Tacet. Instrument nie gra w tej części.	!
4AA/	4a/	4a/	2.ryy	2.ryy	2.ryy	2.ryy	2.ryy	2.ryy	2.ryy	2.ryy
4AA/	4e/	4e/	.	.	.	.	.	.	.	.
4AA/	4a/	4cc#\	.	.	.	.	.	.	.	.
=19	=19	=19	=19	=19	=19	=19	=19	=19	=19	=19
4AA/	8g#/L	8b/L	2.ryy	2.ryy	2.ryy	2.ryy	2.ryy	2.ryy	2.ryy	2.ryy
.	8f#/	8a/	.	.	.	.	.	.	.	.
4AA/	8e/	8g#/	.	.	.	.	.	.	.	.
.	8d#X/J	8f#/J	.	.	.	.	.	.	.	.
4AA/	4e/	4e/	.	.	.	.	.	.	.	.
=20	=20	=20	=20	=20	=20	=20	=20	=20	=20	=20
4E\	8.g#/L	8.b\L	2.ryy	2.ryy	2.ryy	2.ryy	2.ryy	2.ryy	2.ryy	2.ryy
.	16b/Jk	16dd\Jk	.	.	.	.	.	.	.	.
4E\	4a/	4cc#\	.	.	.	.	.	.	.	.
4E\	4cc#\	4ee\	.	.	.	.	.	.	.	.
=21	=21	=21	=21	=21	=21	=21	=21	=21	=21	=21
4E\	4b/	4dd\	2.ryy	2.ryy	2.ryy	2.ryy	2.ryy	2.ryy	2.ryy	2.ryy
*2\right	*	*	*	*	*	*	*	*	*	*
2A\	4a/	4cc#\	.	.	.	.	.	.	.	.
.	4r	4r	.	.	.	.	.	.	.	.
=22:|:	=22:|:	=22:|:	=22	=22	=22	=22	=22	=22	=22	=22
4A\	8cc#\L	8ee\L	2.ryy	2.ryy	2.ryy	2.ryy	2.ryy	2.ryy	2.ryy	2.ryy
.	8b\J	8dd\J	.	.	.	.	.	.	.	.
4A\	4a\	4cc#\	.	.	.	.	.	.	.	.
4A\	4cc#\	4ee\	.	.	.	.	.	.	.	.
=23	=23	=23	=23	=23	=23	=23	=23	=23	=23	=23
4A\	8b\L	8dd\L	2.ryy	2.ryy	2.ryy	2.ryy	2.ryy	2.ryy	2.ryy	2.ryy
.	8a\J	8cc#\J	.	.	.	.	.	.	.	.
4E\	4g#/	4b\	.	.	.	.	.	.	.	.
4E\	4g#/	4b\	.	.	.	.	.	.	.	.
=24	=24	=24	=24	=24	=24	=24	=24	=24	=24	=24
!LO:LB:g=original	!LO:LB:g=original	!LO:LB:g=original	!	!	!	!	!	!	!	!
4E\	8b/L	8dd\L	2.ryy	2.ryy	2.ryy	2.ryy	2.ryy	2.ryy	2.ryy	2.ryy
.	8a/J	8cc#\J	.	.	.	.	.	.	.	.
4E\	4g#/	4b\	.	.	.	.	.	.	.	.
4E\	4b/	4dd\	.	.	.	.	.	.	.	.
=25	=25	=25	=25	=25	=25	=25	=25	=25	=25	=25
4AA/	8a/L	8cc#\L	2.ryy	2.ryy	2.ryy	2.ryy	2.ryy	2.ryy	2.ryy	2.ryy
.	8e/J	8b\J	.	.	.	.	.	.	.	.
4AA/	2c#/	2a/	.	.	.	.	.	.	.	.
4AA/	.	.	.	.	.	.	.	.	.	.
=26	=26	=26	=26	=26	=26	=26	=26	=26	=26	=26
4A\	(8ff#\L	(8aa\L	2.ryy	2.ryy	2.ryy	2.ryy	2.ryy	2.ryy	2.ryy	2.ryy
.	8ee\)	8gg#\)	.	.	.	.	.	.	.	.
4G#X\	(8ee\	(8gg#\	.	.	.	.	.	.	.	.
.	8dd\)	8ff#\)	.	.	.	.	.	.	.	.
4F#\	(8dd\	(8ff#\	.	.	.	.	.	.	.	.
.	8cc#\J)	8ee\J)	.	.	.	.	.	.	.	.
=27	=27	=27	=27	=27	=27	=27	=27	=27	=27	=27
4E\	(8cc#\L	(8ee\L	2.ryy	2.ryy	2.ryy	2.ryy	2.ryy	2.ryy	2.ryy	2.ryy
.	8b\)	8dd\)	.	.	.	.	.	.	.	.
4D\	(8b\	(8dd\	.	.	.	.	.	.	.	.
.	8a\J)	8cc#\J)	.	.	.	.	.	.	.	.
4C#\	4a/	4cc#\	.	.	.	.	.	.	.	.
=28	=28	=28	=28	=28	=28	=28	=28	=28	=28	=28
4D/	8g#/L	8b\L	2.ryy	2.ryy	2.ryy	2.ryy	2.ryy	2.ryy	2.ryy	2.ryy
.	8b/J	8dd\J	.	.	.	.	.	.	.	.
4BB/	8a/L	8cc#\L	.	.	.	.	.	.	.	.
.	8g#/	8b\J	.	.	.	.	.	.	.	.
4E/	8f#/	8a/L	.	.	.	.	.	.	.	.
.	8g#/J	8g#/J	.	.	.	.	.	.	.	.
=29	=29	=29	=29	=29	=29	=29	=29	=29	=29	=29
!LO:TX:a:t=P:problem=mixed beam	!	!	!	!	!	!	!	!	!	!
8AA/L	2a/	2a/	2.ryy	2.ryy	2.ryy	2.ryy	2.ryy	2.ryy	2.ryy	2.ryy
8A\	.	.	.	.	.	.	.	.	.	.
8E\	.	.	.	.	.	.	.	.	.	.
8C#\J	.	.	.	.	.	.	.	.	.	.
4AA/	4r	4r	.	.	.	.	.	.	.	.
==	==	==;	==	==	==	==	==	==	==	==
*-	*-	*-	*-	*-	*-	*-	*-	*-	*-	*-
!!!system-decoration: [g1]s5[g2][g3]s11
!!!RDF**kern: > = above
!!!RDF**kern: < = below
!!!AIN: 1 bass 5 empty 1 timpa 2 violn 2 vox
!!!ENC: Marta Chmielewska
!!!END: 2020-04-24
!!!ENC: Marta Lawrence
!!!END: 2020-06-25
